apps_souq/herag/site_files/assets/seat.svg

<svg xmlns="http://www.w3.org/2000/svg" viewBox="0 0 37.3 33.8">
  <path d="M5.9 17.5v-4.6c0-.8-.7-1.5-1.5-1.5H1.5c-.8 0-1.5.6-1.5 1.4.1.8 1 9.1 1.2 12 0 .8.7 1.5 1.5 1.5h.9c-.2-.5-.4-1-.4-1.5v-4.3c0-1.4 1.1-2.8 2.7-3zm26.6 7.4v-4.3c0-.8-.7-1.5-1.5-1.5H6.3c-.8 0-1.5.7-1.5 1.5v4.3c0 .8.7 1.5 1.5 1.5H31c.8 0 1.5-.7 1.5-1.5zm.4-13.5c-.8 0-1.5.7-1.5 1.5v4.6c1.6.2 2.8 1.6 2.8 3.1v4.3c0 .5-.1 1-.4 1.5h.9c.8 0 1.5-.7 1.5-1.5.1-2.9 1.1-11.2 1.2-12 0-.8-.7-1.5-1.5-1.5h-3zM5.4 27.9c-.3.1-.6.2-1 .1h-.7l-1.2 4.6c-.1.4.1.9.6 1s.9-.1 1-.6l1.3-5.1zm28.3.2h-.8c-.3 0-.6-.1-1-.1l1.4 5.2c.1.4.4.6.8.6.5 0 .8-.4.8-.8v-.2l-1.2-4.7zM32.6.6c-.4-.4-.9-.6-1.4-.6H6.1c-.5 0-1 .2-1.3.6-.4.3-.5.7-.5 1.2.1 1.3.3 4.6.5 8 1.6.2 2.8 1.6 2.8 3.1v4.6h22.1v-4.6c0-1.6 1.2-2.9 2.7-3.1.3-3.4.6-6.7.6-8 0-.5-.1-.9-.4-1.2zM15 12.6h-.5c-.5 0-.8-.4-.8-.8 0-.5.4-.8.8-.8h.5c.5 0 .8.4.8.8.1.4-.3.8-.8.8zm0-6.2h-.5c-.5 0-.8-.4-.8-.8 0-.5.4-.8.8-.8h.5c.5 0 .8.4.8.8.1.5-.3.8-.8.8zm7.8 6.2h-.5c-.5 0-.8-.4-.8-.8 0-.5.4-.8.8-.8h.5c.5 0 .8.4.8.8s-.3.8-.8.8zm0-6.2h-.5c-.5 0-.8-.4-.8-.8 0-.5.4-.8.8-.8h.5c.5 0 .8.4.8.8 0 .5-.3.8-.8.8z" fill="#0473c0"/>
</svg>

<?xml version="1.0" encoding="utf-8"?>
<!-- Generator: Adobe Illustrator 25.4.1, SVG Export Plug-In . SVG Version: 6.00 Build 0)  -->
<svg version="1.1" id="Layer_1" xmlns="http://www.w3.org/2000/svg" xmlns:xlink="http://www.w3.org/1999/xlink" x="0px" y="0px"
	 viewBox="0 0 37.3 33.8" style="enable-background:new 0 0 37.3 33.8;" xml:space="preserve">
<style type="text/css">
	.st0{fill:#00A884;}
</style>
<path class="st0" d="M5.9,17.5v-4.6c0-0.8-0.7-1.5-1.5-1.5H1.5C0.7,11.4,0,12,0,12.8c0.1,0.8,1,9.1,1.2,12c0,0.8,0.7,1.5,1.5,1.5
	h0.9c-0.2-0.5-0.4-1-0.4-1.5v-4.3C3.2,19.1,4.3,17.7,5.9,17.5z M32.5,24.9v-4.3c0-0.8-0.7-1.5-1.5-1.5H6.3c-0.8,0-1.5,0.7-1.5,1.5
	v4.3c0,0.8,0.7,1.5,1.5,1.5H31C31.8,26.4,32.5,25.7,32.5,24.9z M32.9,11.4c-0.8,0-1.5,0.7-1.5,1.5v4.6c1.6,0.2,2.8,1.6,2.8,3.1v4.3
	c0,0.5-0.1,1-0.4,1.5h0.9c0.8,0,1.5-0.7,1.5-1.5c0.1-2.9,1.1-11.2,1.2-12c0-0.8-0.7-1.5-1.5-1.5C35.9,11.4,32.9,11.4,32.9,11.4z
	 M5.4,27.9c-0.3,0.1-0.6,0.2-1,0.1H3.7l-1.2,4.6c-0.1,0.4,0.1,0.9,0.6,1s0.9-0.1,1-0.6C4.1,33,5.4,27.9,5.4,27.9z M33.7,28.1h-0.8
	c-0.3,0-0.6-0.1-1-0.1l1.4,5.2c0.1,0.4,0.4,0.6,0.8,0.6c0.5,0,0.8-0.4,0.8-0.8v-0.2C34.9,32.8,33.7,28.1,33.7,28.1z M32.6,0.6
	C32.2,0.2,31.7,0,31.2,0H6.1c-0.5,0-1,0.2-1.3,0.6C4.4,0.9,4.3,1.3,4.3,1.8c0.1,1.3,0.3,4.6,0.5,8c1.6,0.2,2.8,1.6,2.8,3.1v4.6h22.1
	v-4.6c0-1.6,1.2-2.9,2.7-3.1c0.3-3.4,0.6-6.7,0.6-8C33,1.3,32.9,0.9,32.6,0.6z M15,12.6h-0.5c-0.5,0-0.8-0.4-0.8-0.8
	c0-0.5,0.4-0.8,0.8-0.8H15c0.5,0,0.8,0.4,0.8,0.8C15.9,12.2,15.5,12.6,15,12.6z M15,6.4h-0.5c-0.5,0-0.8-0.4-0.8-0.8
	c0-0.5,0.4-0.8,0.8-0.8H15c0.5,0,0.8,0.4,0.8,0.8C15.9,6.1,15.5,6.4,15,6.4z M22.8,12.6h-0.5c-0.5,0-0.8-0.4-0.8-0.8
	c0-0.5,0.4-0.8,0.8-0.8h0.5c0.5,0,0.8,0.4,0.8,0.8S23.3,12.6,22.8,12.6z M22.8,6.4h-0.5c-0.5,0-0.8-0.4-0.8-0.8
	c0-0.5,0.4-0.8,0.8-0.8h0.5c0.5,0,0.8,0.4,0.8,0.8C23.6,6.1,23.3,6.4,22.8,6.4z"/>
</svg>
